icons/rubyrc.svg

<svg xmlns="http://www.w3.org/2000/svg" viewBox="0 0 17 17"><path fill="#e79627" d="M4 7H3V2h1zm-1 7h1v-3H3zm5 0h1V8H8zm5 0h1v-2h-1zm1-12h-1v6h1zM9 2H8v2h1zM5 8H2a1 1 0 0 0 0 2h3a1 1 0 0 0 0-2m5-3H7a1 1 0 0 0 0 2h3a1 1 0 0 0 0-2m5 4h-3a1 1 0 0 0 0 2h3a1 1 0 0 0 0-2" data-iconColor="Ruby RC Files"/></svg>

<!--
  - The MIT License (MIT)
  -
  - Copyright (c) 2015-2024 Elior "Mallowigi" Boukhobza
  -
  - Permission is hereby granted, free of charge, to any person obtaining a copy
  - of this software and associated documentation files (the "Software"), to deal
  - in the Software without restriction, including without limitation the rights
  - to use, copy, modify, merge, publish, distribute, sublicense, and/or sell
  - copies of the Software, and to permit persons to whom the Software is
  - furnished to do so, subject to the following conditions:
  -
  - The above copyright notice and this permission notice shall be included in all
  - copies or substantial portions of the Software.
  -
  - THE SOFTWARE IS PROVIDED "AS IS", WITHOUT WARRANTY OF ANY KIND, EXPRESS OR
  - IMPLIED, INCLUDING BUT NOT LIMITED TO THE WARRANTIES OF MERCHANTABILITY,
  - FITNESS FOR A PARTICULAR PURPOSE AND NONINFRINGEMENT. IN NO EVENT SHALL THE
  - AUTHORS OR COPYRIGHT HOLDERS BE LIABLE FOR ANY CLAIM, DAMAGES OR OTHER
  - LIABILITY, WHETHER IN AN ACTION OF CONTRACT, TORT OR OTHERWISE, ARISING FROM,
  - OUT OF OR IN CONNECTION WITH THE SOFTWARE OR THE USE OR OTHER DEALINGS IN THE
  - SOFTWARE.
  -
  -->

<svg  xmlns="http://www.w3.org/2000/svg" width="16px" height="16px" viewBox="0 0 17 17">
  <path fill="#E79627" data-iconColor="Ruby RC Files"
        d="M4,7H3V2H4V7ZM3,14H4V11H3v3Zm5,0H9V8H8v6Zm5,0h1V12H13v2ZM14,2H13V8h1V2ZM9,2H8V4H9V2ZM5,8H2a1,1,0,0,0,0,2H5A1,1,0,0,0,5,8Zm5-3H7A1,1,0,0,0,7,7h3A1,1,0,0,0,10,5Zm5,4H12a1,1,0,0,0,0,2h3A1,1,0,0,0,15,9Z"
  />
</svg>
